X: 1
T: Gallagher's Frolics
C: traditional
Z: Frank Weber
N: gelernt von Marcus Eichenlaub, 2007
R: Double Jig
D: 1993: Martin Mulhaire, Seamus Connolly & Jack Coen: Warming Up
D: 1995: Na Connerys: The Session
D: 1995: Joe Burke & Andy McGann: The Funny Reel
D: 1997: Martin Hayes & Dennis Cahill: Lonesome Touch
D: 1999: John Whelan: Come to Dance
D: 1999: Peter & Matt Molloy with Eoin O'Neill: Doolin Point - Best of Diver' Nights 1992-1999
D: 2002: Moving Cloud: Chuckanandy
L: 1/8
K: E min
M: 6/8
D | "Em"~E3 GFE | "Em"BAB dBA | "Em"BdB BAB | "G"GFG "D"AFD | "Em"~E3 GFE | "Em"BAB dBA | "G"BAG "D"FAF | "Em"GEE E2 :||
d | "Em"e2f gfe | "Em"g2a bge | "D"d2e fed | "D"faf gfe | "Em"e2f gfe | "D"dfe dBA | "Bm"BAG "A"FAF | "Em"GEE E2 :||

